X: 33767
T: Ravelled Hank Of Yarn
R: reel
M: 4/4
K: Eminor
D2 AD EGAB|c2 cd cAGE|D2 AD EGAB|cAGE CEGE|
D2 AD EGAB|cded cAGE|D2 AD EGAB|cAGE ED D2||
Ad (3ddd dcAB|cded cAAc|d2 ce d2 cA|GEcE ED D2|
Ad (3ddd dcAB|cded cAAc|d2 (3efg fde^c|d^cAG ED D2||

